X: 1
T: Enrico
R: reel
M: 4/4
L: 1/8
K: Dmaj
A|:d2fe dcdB|ABAG F2A2|d2f2 gfgf|e2a2 a2fe|
d2fe dcdB|ABAG F2A2|B2gf edec|d2f2 d2z2:|
|:a2ag fgfe|dedc B2B2|g2gf efed|cdcB A2Bc|
d2d2 cecA|d2d2 cecA|B2gf edec|d2f2 d2z2:| 

